logos/neo4j.svg

<?xml version="1.0" encoding="UTF-8"?>
<svg width="512px" height="170px" viewBox="0 0 512 170" version="1.1" xmlns="http://www.w3.org/2000/svg" xmlns:xlink="http://www.w3.org/1999/xlink" preserveAspectRatio="xMidYMid">
    <title>Neo4j</title>
    <g>
        <path d="M95.2167207,35.5411211 L95.4524045,35.5411211 C67.5474394,35.5411211 48.7870068,51.6147581 48.7870068,83.2435276 L48.7870068,102.522465 C51.6663532,101.271403 54.7486629,100.55273 57.8844025,100.40131 C61.0678249,100.273594 64.2268138,101.006349 67.028935,102.522465 L67.028935,83.2435276 C67.028935,62.880445 78.2946219,52.1332625 95.3109942,52.1332625 C112.327367,52.1332625 123.593053,62.880445 123.593053,83.2435276 L123.593053,132.548584 L141.834982,132.548584 L141.834982,83.2435276 C141.834982,51.6147581 122.980275,35.5411211 95.2167207,35.5411211 Z M151.922249,85.3646821 L151.733702,85.3646821 C151.733702,56.4227081 172.615289,35.5411211 202.641409,35.5411211 C232.667528,35.5411211 253.030611,56.5641184 253.030611,85.3646821 L253.030611,91.8224189 L171.012639,91.8224189 C173.14592,107.455237 186.883043,118.858482 202.641409,118.077597 C214.991241,118.077597 223.570133,114.353793 228.943724,106.293406 L248.929713,106.293406 C241.434967,123.969693 224.277184,135.23538 202.311452,135.23538 C172.803836,135.23538 151.922249,114.353793 151.922249,85.3646821 Z M234.458726,75.937329 C231.012844,61.4594277 217.688667,51.5308308 202.829956,52.3689463 C188.101401,51.5589841 174.953279,61.5347974 171.766828,75.937329 L234.458726,75.937329 Z M263.070742,85.3646821 C263.070742,57.0286437 283.466676,36.2213056 312.721159,35.5574726 L314.166996,35.5411211 C327.640306,35.0075671 340.738515,40.0471847 350.379474,49.4740978 C360.020432,58.9010109 365.352809,71.8827897 365.121839,85.3646821 C365.121839,114.353793 344.193115,135.23538 314.166996,135.23538 C284.140876,135.23538 263.070742,114.353793 263.070742,85.3646821 Z M346.125723,85.3646821 C346.638412,76.5539864 343.361821,67.9440885 337.121179,61.7034472 C330.880538,55.4628058 322.27064,52.1862144 313.459944,52.6989037 C304.690145,52.3508856 296.173064,55.6789373 289.962525,61.8805271 C283.751987,68.0821168 280.411657,76.5943896 280.747029,85.3646821 C280.234421,94.1878715 283.516006,102.809706 289.765463,109.059163 C296.014921,115.308621 304.636755,118.590205 313.459944,118.077597 C333.304523,118.643238 346.125723,104.690756 346.125723,85.3646821 Z M505.5894,41.9517212 L505.5894,131.982943 C505.5894,155.551326 496.444867,167.382654 472.876485,167.382654 L469.105544,167.382654 L469.105544,151.874658 L471.273835,151.874658 C483.058026,151.874658 487.347472,146.501067 487.347472,133.019952 L487.347472,41.9517212 L505.5894,41.9517212 Z M444.453015,23.5683827 C453.765343,26.5534124 460.063122,35.2367138 460.008148,45.0156109 L460.008148,103.088106 L470.708194,103.088106 L470.708194,119.161743 L460.008148,119.161743 L460.008148,141.693117 L441.76622,141.693117 L441.76622,119.161743 L395.666463,119.161743 C387.014434,119.543564 378.897834,114.973407 374.737739,107.377551 C371.294752,100.329266 372.349287,91.9114891 377.424535,85.9303232 L418.622068,31.7701799 C424.461474,23.6113747 434.97658,20.2726368 444.453015,23.5683827 Z M438.466646,40.8675756 L436.863996,40.8675756 C435.328729,40.9324784 433.921468,41.7416538 433.093055,43.0358668 L392.461163,96.1118646 C391.769261,96.8357211 391.381247,97.797322 391.377017,98.7986602 C391.377017,101.401952 393.487402,103.512337 396.090694,103.512337 L441.671946,103.512337 L441.671946,45.1570212 C441.671946,41.9517212 439.550792,40.8675756 438.466646,40.8675756 Z" fill="#000000"></path>
        <path d="M496.444867,6.27987866e-15 C487.854005,6.27987866e-15 480.889735,6.96427007 480.889735,15.5551326 C480.889735,24.1459951 487.854005,31.1102651 496.444867,31.1102651 C505.03573,31.1102651 512,24.1459951 512,15.5551326 C512,6.96427007 505.03573,6.27987866e-15 496.444867,6.27987866e-15" fill="#018BFF"></path>
        <path d="M56.8473937,109.498706 C53.4965479,109.324677 50.2117712,110.476042 47.7028612,112.704006 L30.5450786,101.485456 C31.0066802,100.105081 31.1987094,98.648859 31.1107198,97.1960102 C31.1297978,90.900292 27.3520313,85.2138756 21.5410128,82.7913776 C15.7299944,80.3688797 9.03173792,81.6880507 4.57322224,86.1330557 C0.114706563,90.5780607 -1.22478683,97.2722828 1.1800641,103.090627 C3.58491503,108.90897 9.25984013,112.703977 15.5555872,112.704006 C18.8948942,112.896701 22.1719803,111.74208 24.652983,109.498706 L41.8107655,121.282897 C41.3862447,122.67093 41.2107034,124.123136 41.2922611,125.572343 C41.2056266,127.021708 41.3812764,128.474812 41.8107655,129.861789 L24.652983,141.693117 C22.0826521,139.598806 18.8711024,138.450635 15.5555872,138.44068 C9.26412341,138.44068 3.59215761,142.230566 1.18451864,148.043121 C-1.22312034,153.855676 0.10771078,160.546215 4.55644752,164.994952 C9.00518427,169.443689 15.6957241,170.77452 21.5082788,168.366881 C27.3208334,165.959242 31.1107198,160.287276 31.1107198,153.995812 C31.2022841,152.54284 31.0101648,151.085935 30.5450786,149.706367 L47.7028612,137.922175 C50.2902068,140.013167 53.5207926,141.145537 56.8473937,141.127475 C60.9685499,141.127495 64.9202296,139.487152 67.8299018,136.568636 C70.7395739,133.65012 72.3679158,129.69348 72.3557166,125.572343 C72.4103778,116.891468 65.52467,109.75461 56.8473937,109.498706" fill="#018BFF"></path>
    </g>
</svg>

<svg preserveAspectRatio="xMidYMid" viewBox="0 0 512 170" xmlns="http://www.w3.org/2000/svg">
  <path d="M95.217 35.541h.235c-27.905 0-46.665 16.074-46.665 47.703v19.278a25.972 25.972 0 0 1 9.097-2.12 17.723 17.723 0 0 1 9.145 2.12V83.244c0-20.364 11.266-31.11 28.282-31.11s28.282 10.746 28.282 31.11v49.305h18.242V83.244c0-31.63-18.855-47.703-46.618-47.703Zm56.705 49.824h-.188c0-28.942 20.881-49.824 50.907-49.824 30.027 0 50.39 21.023 50.39 49.824v6.457h-82.018c2.133 15.633 15.87 27.036 31.628 26.256 12.35 0 20.93-3.724 26.303-11.785h19.986c-7.495 17.677-24.653 28.942-46.619 28.942-29.507 0-50.389-20.881-50.389-49.87Zm82.537-9.428c-3.446-14.478-16.77-24.406-31.629-23.568-14.729-.81-27.877 9.166-31.063 23.568h62.692Zm28.612 9.428c0-28.336 20.396-49.144 49.65-49.808l1.446-.016a49.022 49.022 0 0 1 50.955 49.824c0 28.989-20.929 49.87-50.955 49.87s-51.096-20.881-51.096-49.87Zm83.055 0a30.922 30.922 0 0 0-32.666-32.666 31.487 31.487 0 0 0-32.713 32.666 30.969 30.969 0 0 0 32.713 32.713c19.845.565 32.666-13.387 32.666-32.713Zm159.463-43.413v90.03c0 23.57-9.144 35.4-32.713 35.4h-3.77v-15.507h2.168c11.784 0 16.073-5.374 16.073-18.855V41.952h18.242Zm-61.136-18.384a22.39 22.39 0 0 1 15.555 21.448v58.072h10.7v16.074h-10.7v22.531h-18.242v-22.531h-46.1a22.72 22.72 0 0 1-20.928-11.784 19.75 19.75 0 0 1 2.687-21.448l41.197-54.16a22.626 22.626 0 0 1 25.831-8.202Zm-5.986 17.3h-1.603a4.714 4.714 0 0 0-3.77 2.168L392.46 96.112a3.912 3.912 0 0 0-1.084 2.687 4.714 4.714 0 0 0 4.714 4.713h45.58V45.157c0-3.205-2.12-4.29-3.204-4.29Z"/>
  <path fill="#018BFF" d="M496.445 0c-8.591 0-15.555 6.964-15.555 15.555s6.964 15.555 15.555 15.555c8.59 0 15.555-6.964 15.555-15.555C512 6.965 505.036 0 496.445 0"/>
  <path fill="#018BFF" d="M56.847 109.499a12.774 12.774 0 0 0-9.144 3.205l-17.158-11.219a11.36 11.36 0 0 0 .566-4.289 15.555 15.555 0 1 0-15.555 15.508 12.49 12.49 0 0 0 9.097-3.205l17.158 11.784c-.425 1.388-.6 2.84-.519 4.29-.086 1.449.09 2.902.519 4.289l-17.158 11.831a14.471 14.471 0 0 0-9.097-3.252 15.555 15.555 0 1 0 15.555 15.555c.091-1.453-.1-2.91-.566-4.29l17.158-11.784a14.424 14.424 0 0 0 9.144 3.205 15.508 15.508 0 0 0 15.509-15.555c.054-8.68-6.831-15.817-15.509-16.073"/>
</svg>
